X: 1
T: Penicuik, The
M: 4/4
L: 1/8
R: hornpipe
K: Gmaj
e>f|g2 g>f g>d B>g|e>c A>F G>B A>G|F>G A>B c>e a>g|f>d e>^c d>e f>a|
(3ggg g>f g>d B>g|e>c A>F G>B A>G|F>G A>B c>A F>A|G2 B2 G2:|
f>g|a2 a>g f>d f>a|(3bbb b>a g>B e>f|g>a g>f e>d ^c>d|e>d d>^c d2 d>e|
d>c B>d g>B e>d|c>B A>c E>A c>e|a>g f>e d>f b>a|(3ggg g>f g2:|
